X:1
T:Title
%%score ( 1 2 ) { ( 3 5 ) | 4 }
L:1/8
M:4/4
K:F
V:1 treble nm="Grand Piano, Piano"
V:2 treble 
V:3 bass nm="Grand Piano, Piano"
V:5 bass 
V:4 bass 
V:1
 z4 z2[Q:1/4=100] [FA]2 | A3 B [Fc]2 [CA]2 | [DG]4 [DF]2 z2 | G4 z4 | [B,G]6 z2 | %5
w: 1.~|In~ the~ bleak~ mid|win ter,~|fros|moan,~|
 [CA]3 [FB] [Fc]2 [CA]2 | [DG]4 [DF]2 z2 | G2 z2 z4 | F6 z2 | [FB]3 [FA] [FB]2 [_Ec]2 | %10
w: earth~ stood~ hard~ as~|i ron,~|wa|stone;~|snow~ had~ fal len,~|
 [Dd]4 [FA]2 [FA]2 | [Fd]2 [EA]2 D2- [DF]2 | [CE]6 [FA]2 | [CA]3 [FB] [Fc]2 [CA]2 | %14
w: snow~ snow,~ *|snow~ * on~ *|snow,~ *|in~ the~ bleak~ mid|
 [DG]4 [DF]2 z2 | G2 z2 z4 | F8 |] %17
w: win ter,~|long~|go.~|
V:2
 x8 | F4 z4 | x8 | D3- [DA] [DG]2 [CD]2 | x8 | x8 | x8 | F2- [FA]2 [EG]3 F | x8 | x8 | x8 | %11
w: |||* ty~ * made~||||* * * a~||||
 z4 G2 z2 | x8 | x8 | x8 | F2- [FA]2 [EG]3 F | x8 |] %17
w: ||||* * * a||
V:3
 z4 z2 C2 | C4 z4 | A,4 A,2 z2 | G,3 D, D,2 F,2 | F,4 E,2 z2 | F,3 C C2 F,2 | A,4 A,2 z2 | %7
 D4 B,3 A, | A,6 z2 | B,3 C B,2 A,2 | B,4 A,2 A,2 | F,2 C2 B,2 A,2 | G,6 A,2 | F,3 C C2 F,2 | %14
 A,4 A,2 z2 | D4 B,3 A, | A,8 |] %17
V:4
 z4 z2 F,2 | F,4 A,2 z2 | D,4 D,2 z2 | B,,3 C, B,,2 A,,2 | G,,4 C,2 z2 | z2 z G, A,2 z2 | %6
 D,4 D,2 z2 | B,,4 C,3 F, | F,6 z2 | D,3 F, D,2 C,2 | B,,4 D,2 D,2 | A,,2 A,,2 B,,2 B,,2 | C,6 z2 | %13
 z2 z G, A,2 z2 | D,4 D,2 z2 | B,,4 C,3 F, | F,8 |] %17
V:5
 x8 | z2 z G, C2 F,2 | x8 | x8 | x8 | x8 | x8 | x8 | x8 | x8 | x8 | x8 | x8 | x8 | x8 | x8 | x8 |] %17

